!!!!SEGMENT: 029-1a-Sm.krn
!!!COM: Chopin, Fryderyk
!!!OTL: IMPROMPTU
!!!OPS: op. 29
!!!PPR: M. Schlesinger
!!!PPP: Paris
!!!AGN: Impromptu
!!!NIFC-rismID: 1001009336
!!!NIFC-shelfmark: PL-Wbfc 3745/n
!!!OMD: All⁰. assai quasi presto.
!!!system-decoration: {(s1,s2)}
**kern	**kern	**fing	**dynam
*part1	*part1	*	*part1
*staff2	*staff1	*	*
*	*I"PIANO.	*	*
*clefF4	*clefG2	*	*
*k[b-e-a-d-]	*k[b-e-a-d-]	*	*
*A-:	*A-:	*	*
*M4/4	*M4/4	*	*
*met(c)	*met(c)	*	*
=1	=1	=1	=1
*Xtuplet	*Xtuplet	*	*
*ped	*	*	*
!	!LO:TX:i:t=legato	!	!
12AA-L\	(>12e-^<M>L/	.	.
12c	12dn	.	.
12E-J	12e-	.	<
12DnL\	12cc	.	.
*Xped	*	*	*
12c	12b-	.	.
12E-J	12a-J	.	.
*ped	*	*	*
12BB-L\	12gL/	.	.
12d-X	12ff	.	.
12E-J	12eenJ	.	.
*Xped	*	*	*
.	.	.	.
12DnL\	4ee-X\)	.	[
12d-X	.	.	.
12E-J	.	.	.
=2	=2	=2	=2
*ped	*	*	*
12AA-L\	(>12e-^<M>L/	.	.
12c	12dn	.	.
12E-J	12e-	.	<
*Xped	*	*	*
.	.	.	.
12DnL\	12cc	.	.
12c	12b-	.	.
12E-J	12a-J	.	.
*ped	*	*	*
12BB-L\	12gL/	.	.
12d-X	12ff	.	.
12E-J	12eenJ	.	.
*Xped	*	*	*
.	.	.	.
12DnL\	4ee-X\)	.	[
12d-X	.	.	.
12E-J	.	.	.
=3	=3	=3	=3
*ped	*	*	*
12CL\	(>12ee-M>L\	.	.
12e-	12ddn	.	.
*Xped	*	*	*
12A-J	12ee-J	.	>
*ped	*	*	*
12CL\	12cccL\	.	.
12en	12gg	.	.
*Xped	*	*	*
12A-J	12bb-J	.	.
*ped	*	*	*
12D-L\	12aa-L\	.	.
12f	12een	.	.
12B-J	12ggJ	.	.
12A-L\	12ffL\	.	]
12f	12cc	.	.
*Xped	*	*	*
12B-J	12eenyJ	.	.
!!LO:LB:g=original
=4	=4	=4	=4
*^	*	*	*
2ryy	12D-L\	12dd-L/	.	.
.	12d-	12f	.	.
.	12B-J	12gJ	.	.
.	12FL\	12a-L/	.	.
.	12d-	12cc	.	.
.	12B-J	12b-J	.	.
!	!LO:N:vis=3	!	!	!
2E-/	12E-L\	12a-L/	.	.
.	12d-	12f	.	.
.	12B-J	12a-J	.	.
.	12GL\	12gL/	.	.
.	12d-X	12dn	.	.
.	12B-J	12fJ)	.	.
*v	*v	*	*	*
=5	=5	=5	=5
12AA-L\	(>12e-^<M>L/	.	.
12c	12dn	.	.
12E-J	12e-	.	<
12DnL\	12cc	.	.
12c	12b-	.	.
12E-J	12a-J	.	.
12BB-L\	12gL/	.	.
12d-X	12ff	.	.
12E-J	12eenJ	.	.
12DnL\	4ee-X\)	.	[
12d-X	.	.	.
12E-J	.	.	.
=6	=6	=6	=6
12AA-L\	(>12e-^<M>L/	.	.
12c	12dn	.	.
12E-J	12e-	.	<
12DnL\	12cc	.	.
12c	12b-	.	.
12E-J	12a-J	.	.
12BB-L\	12gL/	.	.
12d-X	12ff	.	.
12E-J	12eenJ	.	.
12DnL\	4ee-X\)	.	[
12d-X	.	.	.
12E-J	.	.	.
!!LO:LB:g=original
=7	=7	=7	=7
*ped	*	*	*
12C-XL\	(>12ee-L\	.	.
12e-	12ddn	.	<
12AnJ	12ee-J	.	.
12F#XL\	12eenL\	.	.
12e-	12ff	.	.
*Xped	*	*	*
.	.	.	.
12AJ	12ff#XJ	.	.
*ped	*	*	*
12BB-L\	12ggL\	.	.
12e-	12ggg	.	.
12B-J	12dddnyJ	.	[
12GL\	12eee-L\	.	.
12e-	12bbn	.	.
*Xped	*	*	*
12B-J	12cccJ	.	.
=8	=8	=8	=8
*^	*	*	*
*ped	*	*	*	*
12ryy	12BB-L\	12ggL\	.	>
12ryy	12dn	12bb-	.	.
12ryy	12B-J	12aa-J	.	.
12ryy	12A-XL\	12ffL\	.	.
12ryy	12d	12cc	.	.
*Xped	*	*	*	*
12ryy	12B-J	12ddnJ	.	]
*ped	*	*	*	*
12ryy	12E-L\	12ee-L\	.	.
12ryy	12g	12b-	.	.
12ryy	12e-J	12bnJ	.	.
*Xped	*	*	*	*
.	.	.	.	.
4B-/	12B-L\	12ccL\	.	<
.	12g	12cc#X	.	.
.	12e-J	12ddJ	.	.
=9	=9	=9	=9	=9
4c/	12cL\	12ee-L\	.	.
.	12g-X	12een	.	.
.	12e-J	12ffJ	.	[
4B-/	12B-L\	[>4gg-X)	.	.
.	12g-	.	.	.
.	12e-J	.	.	.
4An/	12AnL\	(>12gg-L\]	.	.
.	12f	12ee	.	<
.	12e-J	12ffJ	.	.
4B-/	12B-L\	[>4ccc)	.	[
.	12g-	.	.	.
.	12e-J	.	.	.
!!LO:LB:g=original
=10	=10	=10	=10	=10
4An/	12AnL\	(>12cccL\]	.	.
.	12f	12ee-	.	>
.	12e-J	12ffJ	.	.
.	.	8qaa-/	.	.
4F/	12FL\	12gg-XL\	.	.
.	12f	12ff	.	.
.	12cJ	12ee-J	.	]
4B-/	12B-L\	12ffL\	.	.
.	12f	12cc	.	.
.	12d-J	12ee-J	.	.
4A-X/	12A-XL\	[>\4dd-^<)	.	.
.	12f-X	.	.	.
.	12B-J	.	.	.
=11	=11	=11	=11	=11
4G/	12GL\	12dd-L\]	.	<
.	12e-	12cc	.	.
.	12B-J	12dd-J	.	.
4A-/	12A-L\	[>\4ff-X	.	[
.	12f-X	.	.	.
.	12c-XJ	.	.	.
4G/	12GL\	(>12ff-L\]	.	<
.	12e-	12ddn	.	.
.	12B-J	12ee-J	.	.
4F/	12FL\	[>\4bb-	.	[
.	12dn	.	.	.
.	12A-J	.	.	.
=12	=12	=12	=12	=12
4ryy	12F-XL\	12bb-L\]	.	>
.	12d-X	12dd-X	.	.
.	12A-J	12ee-J	.	.
.	.	8qgg/	.	.
4E-/	12E-L\	12ffL\	.	.
.	12d-	12ee-	.	.
.	12GJ	12dd-J	.	.
*ped	*	*	*	*
4AA-/	12AA-L\	12ee-L\	.	.
.	12c	12b-	.	.
.	12A-J	12dd-J	.	]
*Xped	*	*	*	*
4ryy	12EnL\	[>\4cc^<)	.	.
.	12c	.	.	.
.	12A-J	.	.	.
!!LO:LB:g=original
=13	=13	=13	=13	=13
!	!	!LO:TX:t=P:brak wyraźnego początku łuku:problem	!	!
4F/	12FL\	12ccL\]	.	.
.	12c	(>12g	.	.
.	12A-J	12a-J	.	.
*ped	*	*	*	*
4BB-/	12BB-L\	12ccL\	.	.
.	12dn	12b-	.	.
*Xped	*	*	*	*
.	12A-J	12a-J	.	.
4E-/	12E-L\	12gL\	.	.
.	12e-	12b-	.	<
.	12B-J	12ccJ	.	.
4G/	12GL\	12dd-L\	.	.
.	12e-	12ff	.	.
.	12B-J	12ee-J	.	[
=14	=14	=14	=14	=14
4ryy	12A-L\	12ccL\	.	.
.	12e-	12g	.	.
.	12cJ	12a-J	.	>
4F/	12FL\	12ccL\	.	.
.	12dn	12b-	.	.
.	12B-J	12a-J	.	]
4E-/	12E-L\	12gL\	.	.
.	12e-	12b-	.	.
.	.	.	.	<
.	12B-J	12ccJ	.	.
4G/	12GL\	12dd-L\	.	.
.	12e-	12ff	.	.
.	12B-J	12ee-J	.	[
=15	=15	=15	=15	=15
*	*	*^	*	*
4A-/	12A-L\	4ryy	12ccL\	.	.
.	12e-	.	12bn	.	.
.	12cJ	.	12ccJ	.	.
!	!	!	!	!	!LO:DY:a
4A-/	12A-L\	4ff-X^>/	12ff-XL\	.	>
.	12f-X	.	12b-X	.	.
.	12c-XJ	.	12cc-XJ	.	.
4G/	12GL\	4ee-^>/	12ee-L\	.	.
.	12e-	.	12an	.	.
.	12B-J	.	12b-J	.	.
4Gryy	12G-XL\	4ee--^>/	12ee--L\	.	.
.	12e--	.	12a-X	.	.
.	.	.	.	.	]
.	12B--J	.	12b--J)	.	.
*v	*v	*	*	*	*
!!LO:PB:g=original
=16	=16	=16	=16	=16
12FL\	4dd-^>/	(>12dd-L\	.	.
12d-	.	12g	.	.
12A-J	.	12a-J	.	.
12G-XL\	4ee--^>/	12ee--L\	.	>
12e--	.	12a-	.	.
12B--J	.	12b--J	.	.
12FL\	4dd-^>/	12dd-L\	.	.
12d-	.	12gn	.	.
12A-J	.	12a-J	.	.
12EnL\	4cc^>/	12ccL\	.	.
12c	.	12f#X	.	.
12GnJ	.	12gJ	.	]
=17	=17	=17	=17	=17
*^	*	*	*	*
4D#X/	12D#XL\	4bn^>/	12bnL\	.	.
.	12Bn	.	12fn	.	.
.	12F#XJ	.	12f#XJ	.	.
4En/	12EnL\	4cc^>/	12ccL\	.	>
.	12c	.	12f#	.	.
.	12GJ	.	12gnJ	.	.
4E-X/	12E-XL\	4cc-X^>/	12cc-XL\	.	.
.	12c-X	.	12fny	.	.
.	12G-XJ	.	12g-XJ	.	.
4Dn/	12DnL\	4b-y^>/	12b-yL\	.	.
.	12B-X	.	12en	.	.
.	12FnJ	.	12fJ)	.	]
*	*	*v	*v	*	*
=18	=18	=18	=18	=18
4D-X/	12D-XL\	(>12fL/	.	<
.	12B-	12g	.	.
.	12FJ	12a-J	.	.
2.ryy	12BB-L\	12b-L/	.	.
.	12d-	12cc	.	.
.	12FJ	12dd-J	.	[
.	12E-L\	4cc/	.	.
.	12c	.	.	.
.	12A-J	.	.	.
.	12E-L\	4b-/)	.	.
.	12d-	.	.	.
.	12GJ	.	.	.
*v	*v	*	*	*
!!LO:LB:g=original
=19	=19	=19	=19
12AA-L\	(>12e-^<M>L/	.	.
12c	12dn	.	<
12E-J	12e-	.	.
12DnL\	12cc	.	.
12c	12b-	.	.
12E-J	12a-J	.	.
12BB-L\	12gL/	.	.
12d-X	12ff	.	.
12E-J	12eenJ	.	.
12DnL\	4ee-X)	.	[
12d-	.	.	.
12E-J	.	.	.
=20	=20	=20	=20
12AA-L\	(>12e-^<M>L/	.	.
12c	12dn	.	<
12E-J	12e-	.	.
12DnL\	12cc	.	.
12c	12b-	.	.
12E-J	12a-J	.	.
12CL\	12anL/	.	.
12e-	12gg-X	.	.
.	.	.	[
12AnJ	12eenJ	.	.
12FL\	4ff\)	.	.
12e-	.	.	.
12AJ	.	.	.
=21	=21	=21	=21
*ped	*	*	*
12Dn^>L\	(>12b-^>L\	.	<
12f	12an	.	.
*Xped	*	*	*
12B-J	12b-	.	.
*ped	*	*	*
12E-^>L\	12aa-X	.	.
12g	12ff#X	.	.
*Xped	*	*	*
12B-J	12ggJ	.	.
*ped	*	*	*
12En^>L\	12cc^>m>L\	.	.
12g	12bn	.	.
*Xped	*	*	*
12cJ	12cc	.	.
*ped	*	*	*
12F^>L\	12bb-X	.	.
12a-	12gg	.	.
*Xped	*	*	*
12cJ	12aa-J)	.	.
*clefG2	*	*	*
!!LO:LB:g=original
=22	=22	=22	=22
*	*ped	*	*
12GL/	(>12ddn^>L\	.	.
12dd-	12ee-	.	.
12gJ	12ffJ	.	.
12e-L/	12ggL\	.	.
12dd-	12aa-	.	.
12gJ	12aanJ	.	.
12B-L/	12bb-L\	.	.
12dd-	12ccc	.	.
12gJ	12ddd-J	.	.
12e-L/	12dddnL\	.	.
12dd-	12fff	.	.
*	*Xped	*	*
12gJ	12eee-J	.	.
=23	=23	=23	=23
*	*	*^	*
*	*8va	*	*	*
*	*ped	*	*	*
12A-L/	12eee-L\	.	.	.
12cc	12cccc^>	.	.	.
12a-J	12ddd-J	.	1	.
12e-L/	12bbb-^>L\	.	.	.
12cc	12ccc	.	1	.
*	*Xped	*	*	*
12a-J	12aaa-^>J	.	.	.
*clefF4	*	*	*	*
*ped	*	*	*	*
12CL\	12bb-L\	.	1	.
12en	12ggg^>	.	.	.
12cJ	12aa-J	.	1	.
12B-L\	12fff^>L\	.	.	.
12e	12gg	.	1	.
*Xped	*	*	*	*
12cJ	12eeen^>J	.	.	.
=24	=24	=24	=24	=24
*ped	*	*	*	*
12FL\	12cccL\	.	2	.
12f	12aaa-^>	.	.	.
12cJ	12bb-J	.	1	.
12A-L\	12ggg^>L\	.	.	.
12f	12aa-	.	1	.
*Xped	*	*	*	*
12cJ	12fff^>J	.	.	.
*	*X8va	*	*	*
!	!LO:TX:a:t=loco	!	!	!
.	.	.	.	.
!	!LO:TX:i:t=poco ritenuto	!	!	!
*ped	*	*	*	*
12AAnL\	12gg-XL\	.	.	.
12c	12eee-^>	.	.	.
12G-XJ	12ffJ	.	.	.
12E-L\	12ddd-^>L\	.	.	.
12c	12ee-	.	.	.
*Xped	*	*	*	*
12G-J	12ccc^J	.	.	.
*	*	*v	*v	*
!!LO:LB:g=original
=25	=25	=25	=25
*	*	*	*^
*ped	*	*	*	*
12BB-^>L\	12eee-L\	.	>	.
12d-	12ddd-	.	.	.
*Xped	*	*	*	*
12FJ	12fffJ	4	.	.
*ped	*	*	*	*
12C^>L\	12ddd-L\	2	.	.
12e-	12ccc	.	.	.
*Xped	*	*	*	*
12AnJ	12eee-J	.	.	>
*ped	*	*	*	*
12D-^>L\	12cccL\	2	.	.
12f	12bb-	1	.	.
!	!LO:TX:t=P:"acceller" italic fontstyle	!	!	!
!	!LO:TX:t=acceller _:dur=5q:ext=ud:problem:text with extention lines	!	!	!
12B-J	12ddd-J	.	.	.
12A-XL\	12bb-L\	.	.	.
12f	12aa-	.	.	.
12B-J	12cccJ	.	.	.
=26	=26	=26	=26	=26
12D-L\	12aa-L\	.	.	.
12f	12gg	.	.	.
12B-J	12bb-J	.	.	.
12A-L\	12ggL\	.	.	.
12f	12ff	.	.	.
12B-J	12aa-J	.	.	.
12D-L\	12ffL\	.	.	.
12f	12ee-	.	.	.
12B-J	12ggJ	.	.	.
12A-L\	12ee-L\	.	.	.
12f	12dd-	.	.	.
*Xped	*	*	*	*
12B-J	12ffJ	.	]	.
*	*	*	*v	*v
=27	=27	=27	=27
12E-L\	12dd-L\	.	.
12e-	12cc	.	.
12A-J	12ee-J	.	.
*ped	*	*	*
12DnL\	12dd--L\	.	.
12f-X	12cc-X	.	.
*Xped	*	*	*
12A-J	12ff-XJ	.	.
12E-L\	12dd-XL\	.	.
12e-	12ccn	.	.
12A-J	12ee-J	.	.
*ped	*	*	*
12DnL\	12dd--L\	.	.
12f-	12cc-X	.	.
*Xped	*	*	*
12A-J	12ff-J)	.	.
!!LO:LB:g=original
=28	=28	=28	=28
*^	*	*	*
4E-/	12E-L\	(>12dd-XL\	.	.
.	12e-	12ccn	.	.
.	12A-J	12ee-J	.	.
*ped	*	*	*	*
4ryy	12DnL\	12dd--L\	.	.
.	12f-X	12cc-X	.	.
*Xped	*	*	*	*
.	12A-J	12ff-XJ	.	.
4ryy	12E-L\	12dd-XL\	.	.
.	12e-	12ccn	.	.
.	12A-J	12ee-J	.	.
*ped	*	*	*	*
4ryy	12DnL\	12dd--L\	.	.
.	12f-	12cc-X	.	.
*Xped	*	*	*	*
.	12A-J	12ff-J	.	.
=29	=29	=29	=29	=29
*	*	*^	*	*
4E-/	12E-L\	12ryy	12dd-XL\	.	.
.	12e-	12ryy	12ccn	.	.
.	12A-J	4ee-/	12ee-J	.	.
*ped	*	*	*	*	*
4Dn/	12DnL\	.	12dd--L\	.	.
.	12f-X	.	12cc-X	.	.
!	!	!LO:TX:i:t=smorzando	!	!	!
*Xped	*	*	*	*	*
.	12A-J	4ff-X/	12ff-XJ	.	.
4E-/	12E-L\	.	12dd-XL\	.	.
.	12e-	.	12ccn	.	.
.	12A-J	4ee-/	12ee-J	.	.
*ped	*	*	*	*	*
4Dny/	12DnyL\	.	12dd--L\	.	.
.	12f-	.	12cc-y	.	.
!	!	!LO:N:vis=6	!	!	!
*Xped	*	*	*	*	*
.	12A-J	12ff-/	12ff-J	.	.
*v	*v	*	*	*	*
=30	=30	=30	=30	=30
12E-L\	12ryy	12dd-XL\	.	.
12e-	12ryy	12ccn	.	.
12A-J	6ee-/	12ee-J	.	.
*ped	*	*	*	*
12DnL\	.	12dd--L\	.	.
12en	12ryy	12ccn	.	.
*Xped	*	*	*	*
12A-J	12ryy	12eenJ	.	.
8f\	8ryy	8ff''>\)	.	.
8r;>	8r;>	8ryy	.	.
4B-\ 4E-X\	/4g^< 4d-/	4ryy	.	.
!!LO:PB:g=original
=31	=31	=31	=31	=31
12AA-L\	8a-/ 8c/	4ryy	.	.
12c	.	.	.	.
.	8r	.	.	.
12E-J	.	.	.	.
12DnL\	(>12ccL/	4g	.	.
12d-X	12dd-	.	.	.
12E-J	12b-J	.	.	.
12AA-L\	4ee-^>/	12a-L	.	.
12c	.	12e-	.	.
12E-J	.	12a-J	.	.
12DnL\	12ccL/	4g	.	.
12d-X	12dd-	.	.	.
12E-J	12b-J	.	.	.
=32	=32	=32	=32	=32
12AA-L\	4ee-^>/	12a-L	.	.
12c	.	12e-	.	.
12E-J	.	12a-J	.	.
12DnL\	12ccL/	4g	.	.
12d-X	12dd-	.	.	.
12E-J	12b-J	.	.	.
12AA-L\	4ee-^>/	12a-L	.	.
12c	.	12e-	.	.
12E-J	.	12a-J	.	.
12DL\	12ccL/	4g	.	.
12d-X	12dd-	.	.	.
12E-J	12b-J)	.	.	.
*	*v	*v	*	*
=33	=33	=33	=33
4c\ 4E-\ 4AA-\	(>12aa-^<L\ 12a-	.	.
.	12ff	.	f
.	12ee-J	.	.
4rD	12dd-L\	.	.
.	12cc	.	.
.	12b-J	.	.
2rD	12a-L/	.	.
.	12f	.	.
.	12e-J	.	.
.	12d-L/	.	.
.	12c	.	.
.	12B-J	.	.
!!LO:LB:g=original
=34	=34	=34	=34
2rGG	12A-<L/	.	.
.	12F<	.	.
.	12E-<J	.	.
.	12D-<L/	.	.
.	12C<	.	.
.	12BB-<J)	.	.
4rBBB	4AA-<^>/	.	.
4GG^<\	4rG<	.	.
=35	=35	=35	=35
!	!	!	!LO:DY:rj
!	!LO:TX:i:t=sostenuto	!	!
4rD	(>/2c	.	f
*ped	*	*	*
(>/4FF`<	.	.	.
.	.	.	<
4A-\ 4C\	2f/	.	.
4FF`</	.	.	.
*Xped	*	*	*
.	.	.	.
=36	=36	=36	=36
*ped	*	*	*
4B-\ 4En\ 4C\	2g/	.	.
4CC`</	.	.	.
*Xped	*	*	*
.	.	.	.
4A-\ 4F\ 4C\	2a-/	.	[
4FF`</)	.	.	.
=37	=37	=37	=37
4rD	2b-/	.	]
*ped	*	*	*
(>/4EE-X	.	.	.
4d-\ 4G\ 4E-\	4.a-/	.	.
4EE-/	.	.	.
*Xped	*	*	*
.	8b-/	.	.
=38	=38	=38	=38
4c\ 4A-\ 4E-\	2cc/)	.	.
4AA-`</	.	.	.
*ped	*	*	*
4f\ 4d-\ 4B-\ 4G\	(>/2bn^<	.	.
4GG`<)	.	.	.
*Xped	*	*	*
.	.	.	.
!!LO:LB:g=original
=39	=39	=39	=39
4rD	2cc\	.	.
(>/4C`<	.	.	.
*ped	*	*	*
4f\ 4Bn\ 4G\	4.ddn\	.	.
4GG`</	.	.	.
*Xped	*	*	*
.	8ee-\	.	.
=40	=40	=40	=40
4e-\ 4G\	2cc\	.	.
4C`</	.	.	.
*ped	*	*	*
4e-\ 4An\ 4F\	2dd-X^>\	.	.
4FF`</)	.	.	.
*Xped	*	*	*
.	.	.	.
=41	=41	=41	=41
4rD	2b-\	.	.
(>/4BB-`<	.	.	.
*ped	*	*	*
4e-\ 4An\ 4F\	4cc\	.	.
.	4qqee-/	.	.
4FF`</	4dd-\	.	.
*Xped	*	*	*
.	.	.	.
=42	=42	=42	=42
4d-\ 4B-\ 4F\	2b-/	.	.
4BB-`</	.	.	.
.	.	.	>
*ped	*	*	*
4c\ 4B-\ 4En\	4.a-/	.	.
4C/)	.	.	.
*Xped	*	*	*
.	8g/	.	]
=43	=43	=43	=43
4rD	2c/	.	.
(>/4FF`<	.	.	.
.	.	.	<
*ped	*	*	*
4A-\ 4C\	2f/	.	.
4FF`</	.	.	.
*Xped	*	*	*
.	.	.	.
!!LO:LB:g=original
=44	=44	=44	=44
*ped	*	*	*
4B-\ 4En\ 4C\	2g/	.	.
4CC/	.	.	.
*Xped	*	*	*
.	.	.	.
4A-\ 4F\ 4C\	2a-/	.	.
.	.	.	[
4FF''/)	.	.	.
=45	=45	=45	=45
4rD	1b-	.	.
(>/4EE-`<	.	.	.
*ped	*	*	*
4d-\ 4G\ 4E-\	.	.	.
4EE-`</	.	.	.
*Xped	*	*	*
.	.	.	.
.	8qqb-L/	.	.
.	8qqb-	.	.
.	8qqb-	.	.
.	8qqcc	.	.
.	8qqb-	.	.
.	8qqa-	.	.
.	8qqb-J	.	.
=46	=46	=46	=46
4c\ 4A-\ 4E-\)	2cc\)	.	.
4AA-`</	.	.	.
!	!LO:TX:i:t=ritenuto	!	!
*ped	*	*	*
\4dn 4Bn\ 4F\	(>\2ddn^<	.	.
4GG#X`</	.	.	.
*Xped	*	*	*
.	.	.	.
=47	=47	=47	=47
!	!	!	!LO:DY:rj
*ped	*	*	*
4dn\ 4Bn\ 4En\	2een\	.	p
*Xped	*	*	*
4GG#X`</	.	.	.
*ped	*	*	*
4c\ 4An\ 4E\	4.ddn\	.	.
4AAn`</	.	.	.
*Xped	*	*	*
.	8cc\	.	.
=48	=48	=48	=48
*ped	*	*	*
4dny\ 4A-\ 4F\	2ddn\)	.	.
*Xped	*	*	*
4FF`</	.	.	.
*ped	*	*	*
\4f 4B-\ 4G\	(>/2g	.	.
!LO:TX:b:t=P:Xped pod 8qqb-:problem	!	!	!
4GG`</	.	.	.
*Xped	*	*	*
.	.	.	.
.	8qqg/L	.	.
.	8qqan/	.	.
.	8qqg/	.	.
.	8qqf#X/	.	.
.	8qqg/	.	.
.	8qqbbn/	.	.
.	8qqaany/	.	.
.	8qqgg/	.	.
.	8qqffn/	.	.
.	8qqddn/	.	.
.	8qqeen/	.	.
.	8qqa/	.	.
.	8qqb-/J	.	.
!!LO:LB:g=original
=49	=49	=49	=49
*^	*	*	*
!	!	!LO:TX:B:a:t=ten.	!	!
*ped	*	*	*	*
4en	2G	[>1cc)	.	.
*Xped	*	*	*	*
4C	.	.	.	.
4f	2A-	.	.	.
4C	.	.	.	.
=50	=50	=50	=50	=50
(>4d- 4c	2F	2..cc\]	.	.
4C	.	.	.	.
4f 4c	2A-	.	.	.
4C)	.	.	.	.
.	.	(>\8cc	.	.
*v	*v	*	*	*
=51	=51	=51	=51
!	!	!	!LO:DY:rj
*ped	*	*	*
(>/4CC	4dd-X\^<	.	f
.	.	.	<
4c\	4cc\	.	.
4en\ 4B-\ 4G\	4ff\	.	.
*Xped	*	*	*
4c\)	4gg\	.	[
=52	=52	=52	=52
*^	*	*	*
!	!LO:TX:t=P:1F na środku taktu:problem	!	!	!
(>4A-	1F	2.aa-\	.	]
4c/	.	.	.	.
4f/ 4A-/	.	.	.	.
4c/)	.	4cc\)	.	.
=53	=53	=53	=53	=53
!	!	!	!	!LO:DY:rj
!	!LO:TX:t=P:1F na środku taktu:problem	!	!	!
(>/4B- 4G/	1F	(>\6dd-M>	.	p
.	.	.	.	<
!	!	!LO:TX:a:t=P:tuplet number "3":problem	!	!
.	.	6cc\	.	.
4c/	.	.	.	.
.	.	6ddn\	.	.
4en/ 4B-/	.	6een\	.	.
!	!	!LO:TX:a:t=P:tuplet number "3":problem	!	!
.	.	6ff\	.	.
4c/)	.	.	.	.
.	.	6gg\	.	[
!!LO:PB:g=original
=54	=54	=54	=54	=54
!	!LO:TX:t=P:1F na środku taktu:problem	!	!	!
*	*	*ped	*	*
(>/4A-	1F	1aa-	.	.
4c/	.	.	.	.
4f/ 4A-/	.	.	.	.
*	*	*Xped	*	*
4c/)	.	.	.	.
*v	*v	*	*	*
=55	=55	=55	=55
*	*^	*	*
*	*	*ped	*	*
(>/4DD-	4gg/	2ryy	.	]
4B-\	4ff/	.	.	.
4f\ 4A-\	4a-/	[<2a-\	.	.
*	*	*Xped	*	*
4B-\)	4b-/	.	.	.
=56	=56	=56	=56	=56
*	*	*ped	*	*
(>/4EE-	2cc/)	2a-]	.	.
4E-\	.	.	.	.
!	!	!	!	!LO:HP:a
4a-\ 4c\	(>\2ee- 2cc\	2ryy	.	>
*	*	*Xped	*	*
4E-\)	.	.	.	.
=57	=57	=57	=57	=57
*	*	*ped	*	*
(>/4EE-	2ee-:/ 2cc:/	2g:\	.	.
4E-\	.	.	.	.
4g\ 4d-\	4.dd-/ 4.b-/	2ryy	.	.
4E-\)	.	.	.	.
*	*	*Xped	*	*
.	8cc/ 8a-/	.	.	]
*	*v	*v	*	*
=58	=58	=58	=58
.	8qqc/	.	.
.	8qqc^>/L/	.	.
.	8qqe-/	.	.
.	[<8qqa-/J	.	.
*	*ped	*	*
(>/4AAA-	2cc\ 2a-\])	.	.
4E-\	.	.	.
4c\ 4A-\ 4C\	4rb	.	]
4E-\)	8rb	.	.
*	*Xped	*	*
.	(>8cc\	.	.
!!LO:LB:g=original
=59	=59	=59	=59
!	!	!	!LO:DY:rj
*	*ped	*	*
4CC/	4dd-^>\	.	<f
4c\	4cc\	.	.
4e-\ 4B-\ 4G\	4ff\	.	.
4c\	4gg\	.	[
*	*Xped	*	*
.	.	.	.
=60	=60	=60	=60
*^	*	*	*
!	!LO:TX:t=P:1F na środku taktu:problem	!	!	!
*	*	*ped	*	*
(>/4A-	1F	2..aa-\)	.	.
4c/	.	.	.	.
4f/ 4A-/	.	.	.	.
4c/)	.	.	.	.
*	*	*Xped	*	*
.	.	(>\8cc	.	]
=61	=61	=61	=61	=61
*	*	*tuplet	*	*
!	!	!LO:TX:a:t=P:note-head-side tuplet number:problem	!	!
!	!LO:TX:t=P:1F na środku taktu:problem	!	!	!
!	!	!LO:TX:i:t=leggier	!	!
!	!LO:TX:b:t=P:rozpoczęcie ligatury przy 1F przy 4c na końcu taktu:problem	!	!	!
(>/4B- 4G/	[<1F	13dd-M>L\	.	.
.	.	13cc	.	.
.	.	13ccc	.	.
.	.	13bbn	.	.
4c/	.	.	.	.
.	.	13bb-X	.	.
.	.	13gg	.	.
.	.	13een	.	.
4en/ 4B-/	.	.	.	.
.	.	13dd-	.	.
.	.	13cc	.	.
.	.	13ddn	.	.
4c/	.	.	.	.
.	.	13ee	.	.
.	.	13ff	.	.
.	.	13ggJ	.	.
=62	=62	=62	=62	=62
4f/ 4A-/	2F\]	4aa-\)	.	.
4c/)	.	4r	.	.
.	.	(>16qqgg/LL	.	.
.	.	16qqaan/JJ	.	.
*ped	*	*	*	*
!	!	!	!	!LO:DY:rj
!	!	!LO:TX:t=Cresc&colon;_:problem:dynamics with extention lines 	!	!
!	!	!	!	!LO:HP:Bi:t=Cresc&colon;
!LO:S:s=1:note:problem:note-level slur	!	!	!	!
(>/4g-X 4An/	2E-	2aatt>^<\	.	f<
!LO:S:s=1:note:problem:note-level slur	!	!	!	!
4c/)	.	.	.	.
*Xped	*	*	*	*
.	.	.	.	.
.	.	16qqgg/LL	.	.
.	.	16qqaa/JJ	.	.
*v	*v	*	*	*
!!LO:LB:g=original
=63	=63	=63	=63
*ped	*	*	*
(>\4f 4F\ 4Dn\	2bb-TT>\	.	.
4B-\)	.	.	.
*Xped	*	*	*
.	.	.	.
.	16qqaa-/LL	.	.
.	16qqbb-/JJ	.	.
*ped	*	*	*
\4f 4Any\ 4Dny\	2bbnt>^<\	.	.
4Bn\	.	.	.
*Xped	*	*	*
.	.	.	.
.	16qqaa#X/LL	.	.
.	16qqbb/JJ	.	.
=64	=64	=64	=64
*ped	*	*	*
(>\4f^> 4A-\ 4C\	4ccc''>\)	.	.
4c\	4rb	.	.
4cc\	(>2ddd-	.	[ff
4a-\)	.	.	.
*Xped	*	*	*
.	.	.	.
=65	=65	=65	=65
*	*ped	*	*
(>/4CC	2dd-\	.	]
4c\	.	.	.
4en\ 4B-\ 4G\	2cc\	.	.
*	*Xped	*	*
4c\)	.	.	.
=66	=66	=66	=66
*^	*	*	*
!	!LO:TX:t=P:1F na środku taktu:problem	!	!	!
*	*	*ped	*	*
(>/4A-	1F	2ff\)	.	.
4c/	.	.	.	.
4f/ 4A-/	.	4r	.	.
4c/)	.	(>\4cc	.	.
*	*	*Xped	*	*
!	!	!LO:TX:B:t=m.v.	!	!
.	.	.	.	.
=67	=67	=67	=67	=67
!	!LO:TX:t=P:1F na środku taktu:problem	!	!	!
(>/4B- 4G/	1F	4dd-M>\	.	.
4c/	.	4cc\	.	.
4en/ 4B-/	.	4ff\	.	.
4c/)	.	4gg\	.	.
!!LO:LB:g=original
=68	=68	=68	=68	=68
!	!LO:TX:t=P:1F na środku taktu:problem	!	!	!
(>/4A-	1F	2..aa-\)	.	.
4c/	.	.	.	.
4f/ 4A-/	.	.	.	.
4c/)	.	.	.	.
.	.	(>\8cc	.	.
=69	=69	=69	=69	=69
!	!LO:TX:t=P:1F na środku taktu:problem	!	!	!
*	*	*Xtuplet	*	*
(>/4B- 4G/	1F	12dd-L\	.	.
.	.	12cc	.	.
.	.	12ddnJ	.	<
4c/	.	12ccL\	.	.
.	.	12ee-	.	.
.	.	12ccJ	.	.
4en/ 4B-/	.	12eenL\	.	.
.	.	12cc	.	.
.	.	12ffJ	.	.
4c/)	.	12ccL\	.	.
.	.	12gg	.	.
.	.	12ccJ	.	[
=70	=70	=70	=70	=70
!	!LO:TX:t=P:1F na środku taktu:problem	!	!	!
(>/4A-	1F	2..aa-\)	.	.
4c/	.	.	.	.
4f/ 4A-/	.	.	.	.
4c/)	.	.	.	.
.	.	(>8gg\	.	.
*v	*v	*	*	*
=71	=71	=71	=71
*	*ped	*	*
*	*tuplet	*	*
!	!LO:TX:i:t=dolciss&colon;	!	!
(>/4DD-	15ggL\	.	.
.	15aa-	.	.
.	15gg	.	.
.	15ff#X	.	.
4B-\	.	.	.
.	15gg	.	.
.	15bb-	.	.
.	15aa-	.	.
.	15een	.	.
4f\ 4A-\	.	.	.
.	15gg	.	.
.	15ff#	.	.
.	15cc	.	.
.	15ee-y	.	.
4B-\)	.	.	.
.	15dd-	.	.
.	15f	.	.
.	15gJ)	.	.
*	*Xped	*	*
.	.	.	.
!!LO:LB:g=original
=72	=72	=72	=72
(>/4EE-	4cc\ 4a-\	.	.
4E-\	4rb	.	.
4a-\ 4c\	2ccc^>\ 2ee-\	.	.
!	!LO:TX:i:t=con forza	!	!
4E-\)	.	.	.
=73	=73	=73	=73
*	*tuplet	*	*
!	!LO:TX:a:t=P:brak klamry:problem	!	!
(>/4EE-	6bbn^>\ 6ddn\	.	.
.	6bb-X^>\ 6dd-X\	.	.
4E-\	.	.	.
.	6gg^>\ 6b-\	.	.
!	!LO:TX:a:t=P:brak klamry:problem	!	!
4e-\ 4B-\	6ff^>\ 6dd-\	.	.
.	6ee-^>\ 6g\	.	.
4E-\)	.	.	.
.	12rb	.	.
.	12dd-\ 12b-\	.	.
=74	=74	=74	=74
.	8qqc/	.	.
.	[<8qqc/L	.	.
.	[<8qqe-/	.	.
.	[<8qqa-/J	.	.
(>/4AAA-	2..cc^>/) 2..a-/] 2..e-/] 2..c/]	.	.
4E-\	.	.	.
4c\ 4A-\ 4C\	.	.	.
4E-\)	.	.	.
.	(>\8cc	.	.
!	!LO:TX:B:t=m.v.	!	!
.	.	.	.
=75	=75	=75	=75
!	!LO:TX:a:t=P:brak klamry:problem	!	!
(>/4CC	6dd-^<T>\	.	.
.	6cc\	.	.
4c\	.	.	.
.	.	.	<
.	6ddn\	.	.
!	!LO:TX:a:t=P:brak klamry:problem	!	!
4en\ 4B-\	6een\	.	.
.	6ff\	.	.
4c\)	.	.	.
.	6gg\	.	[
=76	=76	=76	=76
*^	*	*	*
!	!LO:TX:t=P:1F na środku taktu:problem	!	!	!
/4A-	1F	2.aa-\)	.	.
4c/	.	.	.	.
4f/	.	.	.	.
4c/	.	8r	.	.
.	.	(>\8cc	.	.
!!LO:PB:g=original
=77	=77	=77	=77	=77
*	*	*Xtuplet	*	*
!	!	!	!	!LO:DY:rj
!	!LO:TX:t=P:1F na środku taktu:problem	!	!	!
(>/4B- 4G/	1F	12ccc^<L\	.	f
.	.	12cc	.	.
.	.	12cc#XJ	.	.
4c/	.	12ddnL\	.	.
.	.	.	.	<
.	.	12dddny	.	.
.	.	12eee-J 12ee-	.	.
4en/ 4B-/	.	12eeenL\	.	.
.	.	12eeny	.	.
.	.	12ffJ	.	.
4c/	.	12ff#XL\	.	.
.	.	.	.	[
.	.	12gg	.	.
.	.	12gggJ	.	.
=78	=78	=78	=78	=78
4f/ 4A-/	2F\	4aaa- 4aa-)	.	.
4c/)	.	4r	.	.
.	.	4qqggn/	.	.
*ped	*	*	*	*
!LO:S:s=1:note:problem:note-level slur	!	!	!	!
(>/4g-X 4An/	2E-\	2aanytt^<\	.	.
!	!	!LO:TX:t=Cresc&colon;_:problem:dynamics with extention lines 	!	!
!	!	!	!	!LO:HP:Bi:t=Cresc&colon;
4c/)	.	.	.	<
*Xped	*	*	*	*
.	.	.	.	.
.	.	16qqgg#X/LL	.	.
.	.	16qqaa/JJ	.	.
*v	*v	*	*	*
=79	=79	=79	=79
*ped	*	*	*
(>\4f: 4F:\ 4Dn:\	(>\2bb-T^<	.	.
*Xped	*	*	*
4B-\)	.	.	.
.	16qqaany/LL	.	.
.	16qqbb-/JJ	.	.
*ped	*	*	*
(>\4f: 4A-:\ 4D-X:\	2bbnt^<\	.	.
4Bn\)	.	.	.
*Xped	*	*	*
.	.	.	[
.	16qqaa#X/LL	.	.
.	16qqbb/JJ	.	.
!!LO:LB:g=original
=80	=80	=80	=80
.	8qccc/	.	.
*	*8va	*	*
*ped	*	*	*
!	!LO:TX:a:t=P:brak zakończenia łuku:problem	!	!
4f\ 4A-\ 4C\	4cccc:`\ 4ccc`:\)	.	.
4c\	4rbb	.	.
4a-\	2dddd-^>\ 2ddd-\	.	.
4f\	.	.	.
*Xped	*	*	*
.	.	.	.
=81	=81	=81	=81
*ped	*	*	*
4en:\ 4B-:\ 4G:\ 4C:\	(>17cccLL\	.	.
.	17cccc	.	.
.	17bbbn	.	.
.	17bbb-X	.	.
.	17ggg	.	.
4	.	.	.
.	17eeen	.	.
.	17ccc	.	.
.	17bbn	.	.
*	*X8va	*	*
!	!LO:TX:a:t=loco	!	!
.	17bb-X	.	.
2	.	.	.
.	17gg	.	.
.	17eeny	.	.
.	17cc	.	.
.	17bn	.	.
.	.	.	.
.	17b-X	.	.
.	17g	.	.
.	17eny	.	.
*Xped	*	*	*
.	17d-XJJ)	.	.
=82	=82	=82	=82
*	*ped	*	*
1rF	2ct<^>/	.	.
*	*Xped	*	*
.	.	.	.
.	16qqBn/LL	.	.
.	16qqc/JJ	.	.
*	*ped	*	*
.	4d-T<^>/	.	.
*	*Xped	*	*
.	.	.	.
.	16qqc/LL	.	.
.	16qqd-/JJ	.	.
*	*ped	*	*
.	4dnt<^>/	.	.
*	*Xped	*	*
.	.	.	.
.	16qqc#X/LL	.	.
.	16qqd/JJ	.	.
!!LO:LB:g=original
=83	=83	=83	=83
*	*ped	*	*
12AA-L\	(>12e-M>L/	.	.
12c	12d-	.	.
12E-J	12e-	.	.
12DnL\	12cc	.	.
12c	12b-	.	.
*	*Xped	*	*
12E-J	12a-J	.	.
.	.	.	<
*	*ped	*	*
12BB-L\	12gL/	.	.
12d-X	12ff	.	.
12E-J	12eenJ	.	.
12DnL\	4ee-X\)	.	[
12d-X	.	.	.
*	*Xped	*	*
12E-J	.	.	.
=84	=84	=84	=84
*	*ped	*	*
12AA-L\	(>12e-M>L/	.	.
12c	12d-	.	.
12E-J	12e-	.	.
12DnL\	12cc	.	.
12c	12b-	.	.
*	*Xped	*	*
12E-J	12a-J	.	.
.	.	.	<
*	*ped	*	*
12BB-L\	12gL/	.	.
12d-X	12ff	.	.
12E-J	12eenJ	.	.
12DnL\	4ee-X\)	.	[
12d-X	.	.	.
*	*Xped	*	*
12E-J	.	.	.
=85	=85	=85	=85
*	*ped	*	*
12CL\	(>12ee-M>L\	.	.
12e-	12ddn	.	.
*	*Xped	*	*
12A-J	12ee-J	.	>
*	*ped	*	*
12CL\	12cccL\	.	.
12en	12gg	.	.
*	*Xped	*	*
12A-J	12bb-J	.	.
*	*ped	*	*
12D-L\	12aa-L\	.	.
12f	12een	.	.
12B-J	12ggJ	.	]
12A-L\	12ffL\	.	.
12f	12cc	.	.
*	*Xped	*	*
12B-J	12eenyJ	.	.
!!LO:LB:g=original
=86	=86	=86	=86
*^	*	*	*
2ryy	12D-L\	12dd-L/	.	.
.	12d-	12f	.	.
.	12B-J	12gJ	.	.
.	12FL\	12a-L/	.	.
.	12d-	12cc	.	.
.	12B-J	12b-J	.	.
!	!LO:N:vis=3	!	!	!
2E-/	12E-L\	12a-L/	.	.
.	12d-	12f	.	.
.	12B-J	12a-J	.	.
.	12GL\	12gL/	.	]
.	12d-X	12dn	.	.
.	12B-J	12fJ)	.	.
*v	*v	*	*	*
=87	=87	=87	=87
*	*ped	*	*
12AA-L\	(>12e-M>L/	.	.
12c	12dny	.	.
12E-J	12e-	.	.
12DnL\	12cc	.	.
.	.	.	<
12c	12b-	.	.
*	*Xped	*	*
12E-J	12a-J	.	.
*	*ped	*	*
12BB-L\	12gL/	.	.
12d-X	12ff	.	.
12E-J	12eenJ	.	.
12DnL\	4ee-X\)	.	[
12d-X	.	.	.
*	*Xped	*	*
12E-J	.	.	.
=88	=88	=88	=88
*	*ped	*	*
12AA-L\	(>12e-M>L/	.	.
12c	12dny	.	.
12E-J	12e-	.	.
12DnL\	12cc	.	.
.	.	.	<
12c	12b-	.	.
*	*Xped	*	*
12E-J	12a-J	.	.
*	*ped	*	*
12BB-L\	12gL/	.	.
12d-X	12ff	.	.
12E-J	12eenJ	.	.
12DnL\	4ee-X\)	.	[
12d-X	.	.	.
*	*Xped	*	*
12E-J	.	.	.
!!LO:PB:g=original
=89	=89	=89	=89
*	*ped	*	*
12C-XL\	(>12ee-L\	.	.
12e-	12ddn	.	.
12AnJ	12ee-J	.	.
12F#XL\	12eenL\	.	.
12e-	12ff	.	.
.	.	.	<
*	*Xped	*	*
12AJ	12ff#XJ	.	.
*	*ped	*	*
12BB-L\	12ggL\	.	.
12e-	12ggg	.	.
12B-J	12dddnyJ	.	.
12GL\	12eee-L\	.	.
12e-	12bbn	.	[
*	*Xped	*	*
12B-J	12cccJ	.	.
=90	=90	=90	=90
*	*ped	*	*
12BB-L\	12ggL\	.	>
12dn	12bb-	.	.
12B-J	12aa-J	.	.
12A-XL\	12ffL\	.	]
12d	12cc	.	.
*	*Xped	*	*
12B-J	12ddnJ	.	.
*	*ped	*	*
12E-L\	12ee-L\	.	.
12g	12b-	.	.
*	*Xped	*	*
12e-J	12bnJ	.	.
12B-L\	12ccL\	.	<
12g	12cc#X	.	.
12e-J	12ddJ	.	.
=91	=91	=91	=91
*^	*	*	*
4c/	12cL\	12ee-L\	.	.
.	12g-X	12een	.	.
.	12e-J	12ffJ	.	[
4B-/	12B-L\	[>\4gg-X)	.	.
.	12g-	.	.	.
.	12e-J	.	.	.
4ryy	12AnL\	(>12gg-L\]	.	.
.	12f	12ee	.	.
.	.	.	.	<
.	12e-J	12ffJ	.	.
4B-/	12B-L\	[>\4ccc)	.	.
.	12g-	.	.	.
.	12e-J	.	.	[
*v	*v	*	*	*
!!LO:LB:g=original
=92	=92	=92	=92
12AnL\	(>12cccL\]	.	>
12f	12ee-	.	.
12e-J	12ffJ	.	.
.	8qaa-/	.	.
12FL\	12gg-XL\	.	.
12f	12ff	.	]
12cJ	12ee-J	.	.
12B-L\	12ffL\	.	.
12f	12cc	.	.
12d-J	12ee-J	.	.
12A-XL\	[>\4dd-^<)	.	.
12f-X	.	.	.
12B-J	.	.	.
=93	=93	=93	=93
12GnyL\	12dd-L\]	.	.
.	.	.	<
12e-	12cc	.	.
12B-J	12dd-J	.	.
12A-L\	(>\[>4ff-X	.	.
12f-X	.	.	[
12c-XJ	.	.	.
12GL\	12ff-L\]	.	<
12e-	12ddn	.	.
12B-J	12ee-J	.	.
12FnyL\	[>4bb-\	.	.
12dn	.	.	[
12A-J	.	.	.
=94	=94	=94	=94
12F-XL\	12bb-L\]	.	>
12d-X	12dd-X	.	.
12A-J	12ee-J	.	.
.	8qgg/	.	.
12E-L\	12ffL\	.	.
12d-	12ee-	.	.
12GJ	12dd-J	.	.
*	*ped	*	*
12AA-L\	12ee-L\	.	.
12c	12b-	.	.
12A-J	12dd-J	.	]
*	*Xped	*	*
12EnL\	[4cc^<\	.	.
12c	.	.	.
12A-J	.	.	.
!!LO:LB:g=original
=95	=95	=95	=95
12FL\	12ccL\]	.	.
12c	12g	.	.
12A-J	12a-J	.	.
*	*ped	*	*
12BB-L\	12ccL\	.	.
12dn	12b-	.	.
12A-J	12a-J	.	.
*	*Xped	*	*
.	.	.	.
12E-L\	12gL\	.	.
12e-	12b-	.	.
12B-J	12ccJ	.	.
12GL\	12dd-L\	.	.
12e-	12ff	.	.
12B-J	12ee-J	.	.
=96	=96	=96	=96
12A-L\	12ccL\	.	.
12e-	12g	.	.
12cJ	12a-J	.	.
.	.	.	>
12FL\	12ccL\	.	.
12dn	12b-	.	.
.	.	.	]
12B-J	12a-J	.	.
12E-L\	12gL\	.	.
12e-	12b-	.	<
12B-J	12ccJ	.	.
12GL\	12dd-L\	.	.
12e-	12ff	.	[
12B-J	12ee-J	.	.
=97	=97	=97	=97
*	*^	*	*
12A-L\	4ryy	12ccL\	.	.
12e-	.	12bn	.	.
12cJ	.	12ccJ	.	.
12A-L\	4ff-X^>/	12ff-XL\	.	>
12f-X	.	12b-X	.	.
12c-XJ	.	12cc-XJ	.	.
12GL\	4ee-^>/	12ee-L\	.	.
12e-	.	12an	.	.
12B-J	.	12b-J	.	.
12G-XL\	4ee--^>/	12ee--L\	.	.
12e--	.	12a-X	.	]
12B--J	.	12b--J	.	.
!!LO:LB:g=original
=98	=98	=98	=98	=98
12FL\	4dd-^>/	12dd-L\	.	.
12d-	.	12g	.	.
12A-J	.	12a-J	.	.
12G-XL\	4ee--^>/	12ee--L\	.	>
12e--	.	12a-	.	.
12B--J	.	12b--J	.	.
12FL\	4dd-^>/	12dd-L\	.	.
12d-	.	12gn	.	.
12A-J	.	12a-J	.	.
12EnL\	4cc^>/	12ccL\	.	.
.	.	.	.	]
12c	.	12f#X	.	.
12GnyJ	.	12gJ	.	.
=99	=99	=99	=99	=99
12D#XL\	4bn^>/	12bnL\	.	.
12Bn	.	12fn	.	.
12F#XJ	.	12f#XJ	.	.
12EnL\	4cc^>/	12ccL\	.	>
12c	.	12f#	.	.
12GJ	.	12gnJ	.	.
12E-XL\	4cc-X^>/	12cc-XL\	.	.
12c-X	.	12fny	.	.
12G-XJ	.	12g-XJ	.	.
12DnL\	4b-ny^>/	12b-nyL\	.	.
.	.	.	.	]
12B-X	.	12en	.	.
12FnJ	.	12fJ)	.	.
*	*v	*v	*	*
=100	=100	=100	=100
12D-XL\	(>12fL/	.	<
12B-	12g	.	.
12FJ	12a-J	.	.
12BB-L\	12b-L/	.	.
12d-	12cc	.	.
12FJ	12dd-J	.	[
12E-L\	4cc/	.	.
12c	.	.	.
12A-J	.	.	.
12E-L\	4b-/)	.	.
12d-	.	.	.
12GJ	.	.	.
!!LO:PB:g=original
=101	=101	=101	=101
12AA-L\	(>12e-^<M>L/	.	.
12c	12dn	.	<
12E-J	12e-	.	.
12DnL\	12cc	.	.
12c	12b-	.	.
12E-J	12a-J	.	.
12BB-L\	12gL/	.	.
12d-X	12ff	.	.
12E-J	12eenJ	.	.
12DnL\	4ee-X)	.	[
12d-	.	.	.
12E-J	.	.	.
=102	=102	=102	=102
12AA-L\	(>12e-^<M>L/	.	.
12c	12dny	.	<
12E-J	12e-	.	.
12DnL\	12cc	.	.
12c	12b-	.	.
12E-J	12a-J	.	.
12CL\	12anL\	.	.
12e-	12gg-X	.	.
.	.	.	.
12AnJ	12eenJ	.	.
12FL\	4ff\)	.	[
12e-	.	.	.
12AJ	.	.	.
=103	=103	=103	=103
*	*ped	*	*
!	!LO:TX:t=Cres_:problem:dynamics with extention lines 	!	!
!	!	!	!LO:HP:Bi:t=Cres
12Dn^>L\	(>12b-^>L\	.	<
12f	12an	.	.
*	*Xped	*	*
12B-J	12b-	.	.
*	*ped	*	*
12E-^>L\	12aa-X	.	.
12g	12ff#X	.	.
*	*Xped	*	*
12B-J	12ggJ	.	.
*	*ped	*	*
12En^>L\	12cc^>m>L\	.	.
12g	12bny	.	.
*	*Xped	*	*
12cJ	12cc	.	.
*	*ped	*	*
12F^>L\	12bb-X	.	.
12a-	12gg	.	.
12cJ	12aa-J	.	.
*	*Xped	*	*
.	.	.	.
*clefG2	*	*	*
!!LO:LB:g=original
=104	=104	=104	=104
*	*ped	*	*
12GL/	12ddn^>L\	.	.
12dd-	12ee-	.	.
12gJ	12ffJ	.	.
12e-L/	12ggL\	.	.
12dd-	12aa-	.	.
12gJ	12aanJ	.	.
12B-L/	12bb-L\	.	.
12dd-	12ccc	.	.
12gJ	12ddd-J	.	.
12e-L/	12dddnL\	.	.
12dd-	12fff	.	.
*	*Xped	*	*
12gJ	12eee-J	.	[
=105	=105	=105	=105
*	*	*^	*
*	*8va	*	*	*
*	*ped	*	*	*
12A-L/	12eee-L\	.	.	.
12cc	12cccc^>	.	.	.
12a-J	12ddd-J	.	1	.
12e-L/	12bbb-^>L\	.	.	.
12cc	12ccc	.	1	.
*	*Xped	*	*	*
12a-J	12aaa-^>J	.	.	.
*clefF4	*	*	*	*
*	*ped	*	*	*
12C^>L\	12bb-L\	.	1	.
12en	12ggg^>	.	.	.
12cJ	12aa-J	.	1	.
12B-L\	12fff^>L\	.	.	.
12e	12gg	.	1	.
*	*Xped	*	*	*
12cJ	12eeen^>J	.	.	.
=106	=106	=106	=106	=106
*	*ped	*	*	*
12FL\	12cccL\	.	2	.
12f	12aaa-^>	.	.	.
12cJ	12bb-J	.	1	.
12A-L\	12ggg^>L\	.	.	.
12f	12aa-	.	1	.
*	*Xped	*	*	*
12cJ	12fff^>J	.	.	.
*	*X8va	*	*	*
!	!LO:TX:a:t=loco	!	!	!
.	.	.	.	.
*	*ped	*	*	*
!	!LO:TX:i:t=poco ritenuto	!	!	!
12AAnL\	12gg-XL\	.	.	.
12c	12eee-^>	.	.	.
12G-XJ	12ffJ	.	.	.
12E-L\	12ddd-^>L\	.	.	.
12c	12ee-	.	.	.
*	*Xped	*	*	*
12G-J	12ccc^J	.	.	.
*	*	*v	*v	*
!!LO:LB:g=original
=107	=107	=107	=107
*	*	*	*^
*ped	*	*	*	*
12BB-^>L\	12eee-L\	.	>	.
12d-	12ddd-	.	.	.
*Xped	*	*	*	*
12FJ	12fffJ	4	.	.
*ped	*	*	*	*
12C^>L\	12ddd-L\	2	.	.
12e-	12ccc	1	.	.
*Xped	*	*	*	*
12AnJ	12eee-J	.	.	.
*ped	*	*	*	*
12D-^>L\	12cccL\	2	.	.
12f	12bb-	1	.	.
*Xped	*	*	*	*
12B-J	12ddd-J	.	.	.
!	!LO:TX:t=P:"acceller" italic fontstyle	!	!	!
!	!LO:TX:t=acceller _:dur=5q:ext=ud:problem:text with extention lines	!	!	!
12A-XL\	12bb-L\	.	.	.
12f	12aa-	.	.	.
12B-J	12cccJ	.	.	.
=108	=108	=108	=108	=108
12D-L\	12aa-L\	.	.	.
12f	12gg	.	.	.
12B-J	12bb-J	.	.	.
12A-L\	12ggL\	.	.	.
12f	12ff	.	.	.
12B-J	12aa-J	.	.	.
12D-L\	12ffL\	.	.	.
12f	12ee-	.	.	.
12B-J	12ggJ	.	.	.
12A-L\	12ee-L\	.	.	.
12f	12dd-	.	.	.
12B-J	12ffJ	.	]	.
*	*	*	*v	*v
=109	=109	=109	=109
12E-L\	12dd-L\	.	.
12e-	12cc	.	.
12A-J	12ee-J	.	.
*ped	*	*	*
12DnL\	12dd--L\	.	.
12f-X	12cc-X	.	.
*Xped	*	*	*
12A-J	12ff-XJ	.	.
12E-L\	12dd-XL\	.	.
12e-	12ccn	.	.
12A-J	12ee-J	.	.
*ped	*	*	*
12DnL\	12dd--L\	.	.
12f-	12cc-X	.	.
*Xped	*	*	*
12A-J	12ff-J	.	.
!!LO:LB:g=original
=110	=110	=110	=110
*^	*	*	*
4E-/	12E-L\	12dd-XL\	.	.
.	12e-	12ccn	.	.
.	12A-J	12ee-J	.	.
*ped	*	*	*	*
4ryy	12DnL\	12dd--L\	.	.
.	12f-X	12cc-X	.	.
*Xped	*	*	*	*
.	12A-J	12ff-XJ	.	.
4ryy	12E-L\	12dd-XL\	.	.
.	12e-	12ccn	.	.
.	12A-J	12ee-J	.	.
*ped	*	*	*	*
4ryy	12DnL\	12dd--L\	.	.
.	12f-	12cc-X	.	.
*Xped	*	*	*	*
.	12A-J	12ff-J	.	.
=111	=111	=111	=111	=111
*	*	*^	*	*
4E-/	12E-L\	12ryy	12dd-XL\	.	.
.	12e-	12ryy	12ccn	.	.
.	12A-J	4ee-/	12ee-J	.	.
*ped	*	*	*	*	*
4ryy	12DnL\	.	12dd--L\	.	.
.	12f-X	.	12cc-X	.	.
*Xped	*	*	*	*	*
.	12A-J	4ff-X/	12ff-XJ	.	.
!	!	!LO:TX:i:t=smorzando	!	!	!
4E-/	12E-L\	.	12dd-XL\	.	.
.	12e-	.	12ccn	.	.
.	12A-J	4ee-/	12ee-J	.	.
*ped	*	*	*	*	*
4Dny/	12DnyL\	.	12dd--L\	.	.
.	12f-	.	12cc-y	.	.
*Xped	*	*	*	*	*
!	!	!LO:N:vis=6	!	!	!
.	12A-J	12ff-/	12ff-J	.	.
*v	*v	*	*	*	*
=112	=112	=112	=112	=112
12E-L\	12ryy	12dd-XL\	.	.
12e-	12ryy	12ccn	.	.
12A-J	6ee-/	12ee-J	.	.
*ped	*	*	*	*
12DnL\	.	12dd--L\	.	.
12en	12ryy	12ccn	.	.
*Xped	*	*	*	*
12A-J	12ryy	12eenJ	.	.
8f\	8ryy	8ff''>\)	.	.
8r;>	8r;>	8ryy	.	.
4B-\ 4E-X\	/4g^< 4d-/	4ryy	.	.
!!LO:PB:g=original
=113	=113	=113	=113	=113
12AA-L\	8a-/ 8c/	4ryy	.	.
12c	.	.	.	.
.	8r	.	.	.
12E-J	.	.	.	.
!	!	!	!	!LO:DY:rj
12DnL\	(>12ccL/	4g	.	p
12d-X	12dd-	.	.	.
12E-J	12b-J	.	.	.
12AA-L\	4ee-^>/	12a-L	.	.
12c	.	12e-	.	.
12E-J	.	12a-J	.	.
12DnL\	12ccL/	4g	.	.
12d-X	12dd-	.	.	.
12E-J	12b-J	.	.	.
=114	=114	=114	=114	=114
12AA-L\	4ee-^>/	12a-L	.	.
12c	.	12e-	.	.
12E-J	.	12a-J	.	.
12DnL\	12ccL/	4g	.	.
12d-X	12dd-	.	.	.
12E-J	12b-J	.	.	.
12AA-L\	4ee-^>/	12a-L	.	.
12c	.	12e-	.	.
12E-J	.	12a-J	.	.
12DnL\	12ccL/	4g	.	.
12d-X	12dd-	.	.	.
12E-J	12b-J	.	.	.
*	*v	*v	*	*
=115	=115	=115	=115
*ped	*	*	*
8c\ 8E-\ 8AA-\	8aa-`>\ 8a-`>\)	.	.
*Xped	*	*	*
8r	8rb	.	.
!	!LO:TX:i:t=sotto voce	!	!
4C/	(>/4g 4en/ 4c/	.	.
4F/ 4FF/	4a-/ 4f/ 4c/	.	.
4E-X/ 4EE-X/	4b-/ 4g/ 4d-/	.	.
!!LO:LB:g=original
=116	=116	=116	=116
4AA-/ 4AAA-/	4cc/ 4a-/ 4c/	.	.
4C/ 4CC/	4g/ 4en/ 4c/	.	.
4F/ 4FF/	4a-/ 4f/ 4c/	.	.
4E-X/ 4EE-X/	4b-/ 4g/ 4d-/	.	.
=117	=117	=117	=117
*	*^	*	*
8AA-/ 8AAA-/	8cc`< 8a-`< 8c`<)	4ryy	.	.
8r	8rb	.	.	.
!	!	!	!	!LO:DY:rj
12AA-L\	12ccL/	4g	.	pp
12d-	12dd-	.	.	.
12E-J	12b-J	.	.	.
12AA-L\	4ee-^>/	12a-L	.	.
12c	.	12e-	.	.
12E-J	.	12a-J	.	.
12DnL\	12ccL/	4g	.	.
12d-X	12dd-	.	.	.
12E-J	12b-J	.	.	.
=118	=118	=118	=118	=118
12AA-L\	4ee-^>/	12a-L	.	.
12c	.	12e-	.	.
12E-J	.	12a-J	.	.
12DnL\	12ccL/	4g	.	.
12d-X	12dd-	.	.	.
12E-J	12b-J	.	.	.
12AA-L\	4ee-^>/	12a-L	.	.
12c	.	12e-	.	.
12E-J	.	12a-J	.	.
12DnL\	12ccL/	4g	.	.
12d-X	12dd-	.	.	.
12E-J	12b-J	.	.	.
*	*v	*v	*	*
!!LO:LB:g=original
=119	=119	=119	=119
*	*ped	*	*
8c\ 8E-\ 8AA-\	8ccc`>:\ 8ee-`>:\ 8a-`>:\	.	.
*	*Xped	*	*
8r	8rb	.	.
4C/	(>/4g 4en/ 4c/	.	.
4F/ 4FF/	4a-/ 4f/ 4c/	.	.
4E-X/ 4EE-X/	4b-/ 4g/ 4d-/	.	.
=120	=120	=120	=120
4AA-/ 4AAA-/	4cc/ 4a-/ 4c/	.	.
4C/ 4CC/	4g/ 4en/ 4c/	.	.
4F/ 4FF/	4a-/ 4f/ 4c/	.	.
4E-X/ 4EE-X/	4b-/ 4g/ 4d-/	.	.
=121	=121	=121	=121
4AA-/ 4AAA-/	4cc/ 4a-/ 4c/)	.	.
4r	4rb	.	.
2r	2rb	.	.
=122	=122	=122	=122
4r	4rb	.	.
4C/ 4CC/	(</4g'< 4en'</ 4c'</	.	.
4F/ 4FF/	4a-'</ 4f/ 4c/	.	.
4E-/ 4EE-/	4b-'</ 4g/ 4d-/	.	.
!!LO:LB:g=original
=123	=123	=123	=123
4AA-/ 4AAA-/	4cc'</) 4a-/ 4c/	.	.
4r	4rb	.	.
2r	2rb	.	.
=124	=124	=124	=124
2r	2rb	.	.
4F/ 4FF/	(</4a-'< 4f'</ 4c'</	.	.
4E-/ 4EE-/	4b-'</ 4g/ 4d-/	.	.
=125	=125	=125	=125
4AA-/ 4AAA-/	4cc'</ 4a-'</ 4c/'<)	.	.
4r	4rb	.	.
2r	2rb	.	.
=126	=126	=126	=126
2E-/ 2AA-/	(</2cc'< 2a-/ 2c/	.	.
2E-/ 2AA-/	2cc'</ 2a-/ 2c/	.	.
=127	=127	=127	=127
1E-;> 1AA-	1cc^^>;> 1a-^^>;> 1c^^>;>)	.	.
==	==	==	==
*-	*-	*-	*-
!!title: @{OTL}; @{OPS} @{ONM} publisher: @{PPR}
!!!system-decoration: {(s1,s2)}
!!!RDF**kern: > = above
!!!RDF**kern: < = below
!!!RDF**dynam: < = "Cres", 'fontstyle="italic"
!!!RDF**dynam: > = "dim.", 'fontstyle="italic"
!!!ENC: Mateusz Mrugas
!!!END: 2019-08-27
!!!EED: Emilia Ziętek
!!!EST: 2019-08-31
!!!rism-genre: Impromptu
!!!rism-key: A-flat major
!!!rism-opus: op.  29
!!!rism-title: Impromptu in A-flat major op.  29
!!!rism-permalink: https://opac.rism.info/search?id=1001009336&View=rism
